X:166
T:The Far Away Boys
B:Terry "Cuz" Teahan "Sliabh Luachra on Parade" 1980
Z:Patrick Cavanagh
M:4/4
L:1/8
R:Reel
K:D
ed | c2B/c/B ABcA | a2af ecAB | c2ec ABcA | d3d d2ed | 
c2B/c/B ABc/B/A | a2af ecAB | d2ff e2dc | e2A2 [1]A2 :|[2] A4 | 
|: e3(e e2)f2 | a2f2 edBc | d3(d d2)ef | g2f/a/f edBc | 
e3(e e2)f2 | a2f2 edBc | d2ff e2dc | e2A2 A4 :|| 

